svgs/sharp-light/columns-3.svg

<svg xmlns="http://www.w3.org/2000/svg" viewBox="0 0 640 512"><!--! Font Awesome Pro 6.6.0 by @fontawesome - https://fontawesome.com License - https://fontawesome.com/license (Commercial License) Copyright 2024 Fonticons, Inc. --><path d="M448 64l0 384 160 0 0-384L448 64zm-32 0L224 64l0 384 192 0 0-384zM192 448l0-384L32 64l0 384 160 0zM0 32l32 0 576 0 32 0 0 32 0 384 0 32-32 0L32 480 0 480l0-32L0 64 0 32z"/></svg>

<svg xmlns="http://www.w3.org/2000/svg" viewBox="0 0 640 512"><!--! Font Awesome Pro 6.4.2 by @fontawesome - https://fontawesome.com License - https://fontawesome.com/license (Commercial License) Copyright 2023 Fonticons, Inc. --><path d="M448 64V448H608V64H448zm-32 0H224V448H416V64zM192 448V64H32V448H192zM0 32H32 608h32V64 448v32H608 32 0V448 64 32z"/></svg>
